Obsidian-SemiLight/actions/22s/state-fork.svg

<svg viewBox="0 0 22 22" xmlns="http://www.w3.org/2000/svg"><path d="m4.5 3a1.4999979 1.5 0 0 0 -1.5 1.5 1.4999979 1.5 0 0 0 1 1.4121094v6.0878906 4.087891a1.4999979 1.5 0 0 0 -1 1.412109 1.4999979 1.5 0 0 0 1.5 1.5 1.4999979 1.5 0 0 0 1.5-1.5 1.4999979 1.5 0 0 0 -1-1.412109v-4.087891a1 1 0 0 1 1-1h10a2 2 0 0 0 2-2v-3.0878906a1.4999979 1.5 0 0 0 1-1.4121094 1.4999979 1.5 0 0 0 -1.5-1.5 1.4999979 1.5 0 0 0 -1.5 1.5 1.4999979 1.5 0 0 0 1 1.4121094v3.0878906a1 1 0 0 1 -1 1h-10a2 2 0 0 0 -1 .269531v-4.3574216a1.4999979 1.5 0 0 0 1-1.4121094 1.4999979 1.5 0 0 0 -1.5-1.5zm0 1a.5.5 0 0 1 .5.5.5.5 0 0 1 -.5.5.5.5 0 0 1 -.5-.5.5.5 0 0 1 .5-.5zm13 0a.5.5 0 0 1 .5.5.5.5 0 0 1 -.5.5.5.5 0 0 1 -.5-.5.5.5 0 0 1 .5-.5zm-1.5 10v2h-2v1h2v2h1v-2h2v-1h-2v-2zm-11.5 3a.5.5 0 0 1 .5.5.5.5 0 0 1 -.5.5.5.5 0 0 1 -.5-.5.5.5 0 0 1 .5-.5z" fill="#4d4d4d"/></svg>

<svg xmlns="http://www.w3.org/2000/svg" viewBox="0 0 22 22">
  <defs id="defs3051">
    <style type="text/css" id="current-color-scheme">
      .ColorScheme-Text {
        color:#4d4d4d;
      }
      </style>
  </defs>
 <path 
    style="fill:currentColor;fill-opacity:1;stroke:none" 
    d="M 4.5 3 A 1.4999979 1.5 0 0 0 3 4.5 A 1.4999979 1.5 0 0 0 4 5.9121094 L 4 12 L 4 16.087891 A 1.4999979 1.5 0 0 0 3 17.5 A 1.4999979 1.5 0 0 0 4.5 19 A 1.4999979 1.5 0 0 0 6 17.5 A 1.4999979 1.5 0 0 0 5 16.087891 L 5 12 A 1 1 0 0 1 6 11 L 16 11 A 2 2 0 0 0 18 9 L 18 5.9121094 A 1.4999979 1.5 0 0 0 19 4.5 A 1.4999979 1.5 0 0 0 17.5 3 A 1.4999979 1.5 0 0 0 16 4.5 A 1.4999979 1.5 0 0 0 17 5.9121094 L 17 9 A 1 1 0 0 1 16 10 L 6 10 A 2 2 0 0 0 5 10.269531 L 5 5.9121094 A 1.4999979 1.5 0 0 0 6 4.5 A 1.4999979 1.5 0 0 0 4.5 3 z M 4.5 4 A 0.5 0.5 0 0 1 5 4.5 A 0.5 0.5 0 0 1 4.5 5 A 0.5 0.5 0 0 1 4 4.5 A 0.5 0.5 0 0 1 4.5 4 z M 17.5 4 A 0.5 0.5 0 0 1 18 4.5 A 0.5 0.5 0 0 1 17.5 5 A 0.5 0.5 0 0 1 17 4.5 A 0.5 0.5 0 0 1 17.5 4 z M 16 14 L 16 16 L 14 16 L 14 17 L 16 17 L 16 19 L 17 19 L 17 17 L 19 17 L 19 16 L 17 16 L 17 14 L 16 14 z M 4.5 17 A 0.5 0.5 0 0 1 5 17.5 A 0.5 0.5 0 0 1 4.5 18 A 0.5 0.5 0 0 1 4 17.5 A 0.5 0.5 0 0 1 4.5 17 z "
    class="ColorScheme-Text"
    />  
</svg>
